!!!OTL: 174. Jch ging mal ueber 'ne' Bruecke.
!!!ARE: Europa, Mitteleuropa, Deutschland, Sachsen
!!!SCT: K2174
!!!TXL: @@DE
!!!YEM: Copyright 1995, estate of Helmut Schaffrath.
**kern	**text
*clefG2	*
*M2/4	*
*k[b-]	*
*F:	*
{8c	Jch
=1	=1
8f	ging
8g	mal
8a	ü_ber
8b-	'ne'
=2	=2
4cc	Brü-
8a	-cke,
8r}	.
=3	=3
{4b-/	die
4g	war
=4	=4
4f	naß,
8r}	.
{8c	be-
=5	=5
8f	-geg-
8g	-ne_ten
8a	mir
8b-	ʒwei
=6	=6
4cc	Ʒi-
8a	-cken,
8r}	.
=7	=7
{4b-/	die
4g	fraßen
=8	=8
4f	Gras.
4r}	.
=9	=9
{8b-	Schön-
8b-	-ſter
8g	Schatʒ,
8g	komm
=10	=10
8a	her
8a	ʒu
8f}	mir,
{8c	es
=11	=11
8b-	ſind
8b-	ja
8g	ſchö-
8g	-ne
=12	=12
8a	Leu-
8a	-te
8f}	hier.
{8c	A-
=13	=13
8f	-de!
8g	a-
8a	-de,
8b-	a-
=14	=14
4cc	-de,
8r}	.
{8b-	a-
=15	=15
8a	-de,
8a	a-
8g	-de,
8g	a-
=16	=16
4f	-de!
8r}	.
==	==
!!!AGN: Kinder - Lied, Reigen, Tanz - Spiel, Brautwerbung
!!!ONB: ESAC (Essen Associative Code) Database: KINDER
!!!AMT: simple duple
!!!AIN: vox
!!!EED: Helmut Schaffrath
!!!EEV: 1.0
!!Provinz Sachseu (Halle, Magdeburg); Vergl. Zimmer 12.
!!!GTL: Zweites Buch. Kinderspiel: 2. Reigen und Tanzspiele. / D. Ringelreigen mit Wahl (Brautwerbung).
!!!URL-scan: https://archive.org/details/DeutschesKinderliedUndKinderspiel/page/470/mode/1up
!!!ENC: Anna Maria Matuszewska
!!!EEV: 2024/03/09
*-	*-
